Origami/24x24/apps/plasma.svg

<svg width="24" height="24" version="1.1" viewBox="0 0 24 24" xmlns="http://www.w3.org/2000/svg">
 <rect transform="matrix(0,-1,-1,0,0,0)" x="-22" y="-22" width="20" height="20" rx="10" ry="10" style="fill:#eba229"/>
 <g transform="matrix(-.044846 0 0 -.044988 17.404 19)">
  <path d="m64.748 301.4a33.448 33.342 0 0 0 33.448 -33.342 33.448 33.342 0 0 0 -33.448 -33.342 33.448 33.342 0 0 0 -33.448 33.342 33.448 33.342 0 0 0 33.448 33.342zm92.852-22.228c6.6311-0.0603 13.077-0.72357 18.771-2.1273 43.251-10.664 86.997-30.802 109.18-77.016 34.01-75.06 0.63-163.8-74.42-197.8-41.5-18.434-80.76-16.71-113.37 12.418-9.6085 8.7465-17.446 18.745-20.556 33.125-6.1857 28.606 8.8568 68.99 69.596 96.509 57.158 25.897 67.918 64.253 59.797 89.259-8.1916 25.22-38.34 48.005-85.187 38.378-5.0036-1.0556-9.9242-2.4128-14.808-4.0375 9.3832 6.3074 31.106 11.468 50.999 11.288zm-159.75-22.23a33.448 33.342 0 0 0 33.448 -33.342 33.448 33.342 0 0 0 -33.448 -33.342 33.448 33.342 0 0 0 -33.448 33.342 33.448 33.342 0 0 0 33.448 33.342zm-22.298-88.91a33.448 33.342 0 0 0 33.448 -33.342 33.448 33.342 0 0 0 -33.448 -33.342 33.448 33.342 0 0 0 -33.448 33.342 33.448 33.342 0 0 0 33.448 33.342z" style="opacity:.2"/>
 </g>
 <path d="m12 2c-5.54 0-10 4.46-10 10 0 0.084 4e-3 0.1665 0.00585 0.25 0.13235-5.423 4.5382-9.75 9.994-9.75s9.862 4.327 9.994 9.75c2e-3 -0.083 0.0059-0.1661 0.0059-0.25 0-5.54-4.46-10-10-10z" style="fill:#ffffff;opacity:.2"/>
 <g transform="matrix(-.044846 0 0 -.044988 17.404 19)" style="fill:#3f3f3f">
  <path transform="matrix(11.498,0,0,11.498,-135.83,-118.41)" d="m20.314 12.539c-0.83567 0.7607-1.5166 1.6303-1.7871 2.8809-0.53798 2.4879 0.77013 5.9992 6.0527 8.3926 4.9711 2.2523 5.9094 5.5908 5.2031 7.7656-0.71244 2.1934-3.3358 4.1732-7.4102 3.3359-0.43517-0.09181-0.86438-0.21026-1.2891-0.35156 1.0881 0.73142 4.0872 1.2861 6.068 0.79777 3.7616-0.92745 7.5687-2.6789 9.4984-6.6982 2.9574-6.5276 0.05302-14.246-6.4746-17.203-3.6091-1.6034-7.0252-1.4532-9.8613 1.0801z"/>
 </g>
 <path d="M 16,6.5 A 1.5,1.5 0 0 1 14.5,8 1.5,1.5 0 0 1 13,6.5 1.5,1.5 0 0 1 14.5,5 1.5,1.5 0 0 1 16,6.5 Z" style="fill:#3f3f3f"/>
 <path d="M 19,8.5 A 1.5,1.5 0 0 1 17.5,10 1.5,1.5 0 0 1 16,8.5 1.5,1.5 0 0 1 17.5,7 1.5,1.5 0 0 1 19,8.5 Z" style="fill:#3f3f3f"/>
 <path d="m20 12.5a1.5 1.5 0 0 1 -1.5 1.5 1.5 1.5 0 0 1 -1.5 -1.5 1.5 1.5 0 0 1 1.5 -1.5 1.5 1.5 0 0 1 1.5 1.5z" style="fill:#3f3f3f"/>
 <path d="m2.0058 12.2c-2e-3 0.1-0.0058 0.2-0.0058 0.3 0 5.54 4.46 10 10 10s10-4.46 10-10c0-0.084-4e-3 -0.1665-6e-3 -0.25-0.132 5.423-4.538 9.75-9.994 9.75s-9.862-4.327-9.994-9.75z" style="opacity:.2"/>
</svg>

<svg xmlns="http://www.w3.org/2000/svg" width="24" height="24" version="1.1" viewBox="0 0 24 24">
 <g>
  <rect style="fill:#eba229" width="20" height="20" x="-22" y="-22" rx="10" ry="10" transform="matrix(0,-1,-1,0,0,0)"/>
  <g transform="matrix(-0.044846,0,0,-0.044988,17.404,19)">
   <g>
    <g>
     <g>
      <g>
       <path style="opacity:0.2" d="M 64.748,301.4 A 33.448,33.342 0 0 0 98.196,268.058 33.448,33.342 0 0 0 64.748,234.716 33.448,33.342 0 0 0 31.3,268.058 33.448,33.342 0 0 0 64.748,301.4 Z M 157.6,279.172 c 6.6311,-0.0603 13.077,-0.72357 18.771,-2.1273 43.251,-10.664 86.997,-30.802 109.18,-77.016 34.01,-75.06 0.63,-163.8 -74.42,-197.8 -41.5,-18.434 -80.76,-16.71 -113.37,12.418 -9.6085,8.7465 -17.446,18.745 -20.556,33.125 -6.1857,28.606 8.8568,68.99 69.596,96.509 57.158,25.897 67.918,64.253 59.797,89.259 -8.1916,25.22 -38.34,48.005 -85.187,38.378 -5.0036,-1.0556 -9.9242,-2.4128 -14.808,-4.0375 9.3832,6.3074 31.106,11.468 50.999,11.288 z M -2.15,256.942 A 33.448,33.342 0 0 0 31.298,223.6 33.448,33.342 0 0 0 -2.15,190.258 33.448,33.342 0 0 0 -35.598,223.6 33.448,33.342 0 0 0 -2.15,256.942 Z m -22.298,-88.91 A 33.448,33.342 0 0 0 9,134.69 a 33.448,33.342 0 0 0 -33.448,-33.342 33.448,33.342 0 0 0 -33.448,33.342 33.448,33.342 0 0 0 33.448,33.342 z"/>
      </g>
     </g>
    </g>
   </g>
  </g>
  <path style="opacity:0.2;fill:#ffffff" d="M 12,2 C 6.46,2 2,6.46 2,12 c 0,0.084 0.004,0.1665 0.00585,0.25 0.13235,-5.423 4.5382,-9.75 9.994,-9.75 5.4558,0 9.862,4.327 9.994,9.75 0.002,-0.083 0.0059,-0.1661 0.0059,-0.25 0,-5.54 -4.46,-10 -10,-10 z"/>
  <g style="fill:#3f3f3f" transform="matrix(-0.044846,0,0,-0.044988,17.404,19)">
   <g>
    <g>
     <g>
      <g>
       <path d="m 20.314,12.539 c -0.83567,0.7607 -1.5166,1.6303 -1.7871,2.8809 -0.53798,2.4879 0.77013,5.9992 6.0527,8.3926 4.9711,2.2523 5.9094,5.5908 5.2031,7.7656 -0.71244,2.1934 -3.3358,4.1732 -7.4102,3.3359 -0.43517,-0.09181 -0.86438,-0.21026 -1.2891,-0.35156 1.0881,0.73142 4.0872,1.2861 6.068,0.79777 3.7616,-0.92745 7.5687,-2.6789 9.4984,-6.6982 2.9574,-6.5276 0.05302,-14.246 -6.4746,-17.203 -3.6091,-1.6034 -7.0252,-1.4532 -9.8613,1.0801 z" transform="matrix(11.498,0,0,11.498,-135.83,-118.41)"/>
      </g>
     </g>
    </g>
   </g>
  </g>
  <path style="fill:#3f3f3f" d="M 16,6.5 A 1.5,1.5 0 0 1 14.5,8 1.5,1.5 0 0 1 13,6.5 1.5,1.5 0 0 1 14.5,5 1.5,1.5 0 0 1 16,6.5 Z"/>
  <path style="fill:#3f3f3f" d="M 19,8.5 A 1.5,1.5 0 0 1 17.5,10 1.5,1.5 0 0 1 16,8.5 1.5,1.5 0 0 1 17.5,7 1.5,1.5 0 0 1 19,8.5 Z"/>
  <path style="fill:#3f3f3f" d="M 20,12.5 A 1.5,1.5 0 0 1 18.5,14 1.5,1.5 0 0 1 17,12.5 1.5,1.5 0 0 1 18.5,11 1.5,1.5 0 0 1 20,12.5 Z"/>
  <path style="opacity:0.2" d="M 2.0058,12.2 C 2.0038,12.3 2,12.4 2,12.5 c 0,5.54 4.46,10 10,10 5.54,0 10,-4.46 10,-10 0,-0.084 -0.004,-0.1665 -0.006,-0.25 C 21.862,17.673 17.456,22 12,22 6.544,22 2.138,17.673 2.006,12.25 Z"/>
 </g>
</svg>
